src/components/assets/images/tick.svg

<svg width="30" height="30" viewBox="0 0 30 30" fill="none" xmlns="http://www.w3.org/2000/svg">
<path d="M15 30C23.2852 30 30 23.2852 30 15C30 6.71484 23.2852 0 15 0C6.71484 0 0 6.71484 0 15C0 23.2852 6.71484 30 15 30ZM21.6211 12.2461L14.1211 19.7461C13.5703 20.2969 12.6797 20.2969 12.1348 19.7461L8.38477 15.9961C7.83398 15.4453 7.83398 14.5547 8.38477 14.0098C8.93555 13.4648 9.82617 13.459 10.3711 14.0098L13.125 16.7637L19.6289 10.2539C20.1797 9.70312 21.0703 9.70312 21.6152 10.2539C22.1602 10.8047 22.166 11.6953 21.6152 12.2402L21.6211 12.2461Z" fill="#34B233"/>
</svg>

<svg xmlns="http://www.w3.org/2000/svg" width="30" height="30" fill="none"><path fill="#34B233" d="M15 30c8.285 0 15-6.715 15-15S23.285 0 15 0 0 6.715 0 15s6.715 15 15 15Zm6.621-17.754-7.5 7.5a1.4 1.4 0 0 1-1.986 0l-3.75-3.75a1.406 1.406 0 0 1 1.986-1.986l2.754 2.754 6.504-6.51a1.406 1.406 0 0 1 1.986 1.986l.006.006Z"/></svg>
